; generated by PrusaSlicer 2.4.2+win64 on 2022-09-10 at 14:04:38 UTC


;
;
; 

; external perimeters extrusion width = 0.45mm
; perimeters extrusion width = 0.45mm
; infill extrusion width = 0.45mm
; solid infill extrusion width = 0.45mm
; top infill extrusion width = 0.40mm
; first layer extrusion width = 0.42mm

M73 P0 R15
M73 Q0 S15
M201 X1000 Y1000 Z200 E5000 ; sets maximum accelerations, mm/sec^2
M203 X200 Y200 Z12 E120 ; sets maximum feedrates, mm / sec
M204 P1250 R1250 T1250 ; sets acceleration (P, T) and retract acceleration (R), mm/sec^2
M205 X8.00 Y8.00 Z0.40 E4.50 ; sets the jerk limits, mm/sec
M205 S0 T0 ; sets the minimum extruding and travel feed rate, mm/sec
M107
;TYPE:Custom
M862.3 P "MK3S" ; printer model check
M862.1 P0.4 ; nozzle diameter check
M115 U3.11.0 ; tell printer latest fw version
G90 ; use absolute coordinates
M83 ; extruder relative mode
M104 S205 ; set extruder temp
M140 S60 ; set bed temp
M190 S60 ; wait for bed temp
M109 S205 ; wait for extruder temp
G28 W ; home all without mesh bed level
G80 ; mesh bed leveling

G1 Z0.2 F720
G1 Y-3 F1000 ; go outside print area
G92 E0
G1 X60 E9 F1000 ; intro line
G1 X100 E12.5 F1000 ; intro line

G92 E0
M221 S95

; Don't change E values below. Excessive value can damage the printer.

M907 E538 ; set extruder motor current
G21 ; set units to millimeters
G90 ; use absolute coordinates
M83 ; use relative distances for extrusion
M900 K0.05 ; Filament gcode LA 1.5
M900 K30 ; Filament gcode LA 1.0
M107
;LAYER_CHANGE
;Z:0.2
;HEIGHT:0.2
;BEFORE_LAYER_CHANGE
G92 E0.0
;0.2


G1 E-.8 F2100
G1 Z.4 F720
;AFTER_LAYER_CHANGE
;0.2
G1 X110.139 Y91.083 F10800
G1 Z.2 F720
G1 E.8 F2100
M204 S800
;TYPE:Skirt/Brim
;WIDTH:0.42
G1 F1200
G1 X111.205 Y90.069 E.04519
G1 X112.5 Y89.746 E.04102
G1 X137.5 Y89.746 E.76818
G1 X138.917 Y90.139 E.04519
G1 X139.931 Y91.205 E.04519
G1 X140.254 Y92.5 E.04102
G1 X140.254 Y117.5 E.76818
G1 X139.861 Y118.917 E.04519
M73 P1 R14
M73 Q1 S14
G1 X138.795 Y119.931 E.04519
G1 X137.5 Y120.254 E.04102
G1 X112.5 Y120.254 E.76818
G1 X111.083 Y119.861 E.04519
G1 X110.069 Y118.795 E.04519
G1 X109.746 Y117.5 E.04102
G1 X109.746 Y92.5 E.76818
G1 X110.123 Y91.14 E.04335
M204 S1000
G1 X110.497 Y91.252 F10800
M204 S800
G1 F1200
G1 X110.515 Y91.193 E.00191
G1 X111.56 Y90.317 E.04193
G1 X112.5 Y90.123 E.02948
G1 X137.5 Y90.123 E.76818
G1 X138.807 Y90.515 E.04193
G1 X139.683 Y91.56 E.04193
G1 X139.877 Y92.5 E.02948
G1 X139.877 Y117.5 E.76818
G1 X139.485 Y118.807 E.04193
G1 X138.44 Y119.683 E.04193
G1 X137.5 Y119.877 E.02948
G1 X112.5 Y119.877 E.76818
G1 X111.193 Y119.485 E.04193
G1 X110.317 Y118.44 E.04193
G1 X110.123 Y117.5 E.02948
G1 X110.123 Y92.5 E.76818
G1 X110.479 Y91.31 E.03817
M204 S1000
; printing object cube.stl id:0 copy 0
;WIPE_START
M73 P2 R14
M73 Q2 S14
G1 F8640
G1 X110.515 Y91.193 E-.0282
G1 X111.56 Y90.317 E-.31505
G1 X112.5 Y90.123 E-.22155
G1 X113.345 Y90.123 E-.1952
;WIPE_END
G1 E-.04 F2100
G1 Z.6 F720
G1 X112.91 Y92.91 F10800
G1 Z.2 F720
G1 E.8 F2100
M204 S800
;TYPE:External perimeter
G1 F1200
G1 X137.09 Y92.91 E.74298
G1 X137.09 Y117.09 E.74298
G1 X112.91 Y117.09 E.74298
G1 X112.91 Y92.97 E.74114
M204 S1000
; stop printing object cube.stl id:0 copy 0
M106 S84.15
;LAYER_CHANGE
;Z:0.4
;HEIGHT:0.2
;BEFORE_LAYER_CHANGE
G92 E0.0
;0.4


;WIPE_START
G1 F8640
G1 X116.201 Y92.962 E-.76
;WIPE_END
G1 E-.04 F2100
G1 Z.6 F720
;AFTER_LAYER_CHANGE
;0.4
M104 S200 ; set temperature
G1 X116.201 Y89.746 F10800
G1 Z.4 F720
G1 E.8 F2100
;TYPE:Skirt/Brim
G1 F1349
G1 X137.5 Y89.746 E.65445
G1 X138.917 Y90.139 E.04519
G1 X139.931 Y91.205 E.04519
G1 X140.254 Y92.5 E.04102
G1 X140.254 Y117.5 E.76818
G1 X139.861 Y118.917 E.04519
G1 X138.795 Y119.931 E.04519
G1 X137.5 Y120.254 E.04102
G1 X112.5 Y120.254 E.76818
G1 X111.083 Y119.861 E.04519
M73 P3 R14
M73 Q3 S14
G1 X110.069 Y118.795 E.04519
G1 X109.746 Y117.5 E.04102
G1 X109.746 Y92.5 E.76818
G1 X110.139 Y91.083 E.04519
G1 X111.205 Y90.069 E.04519
G1 X112.5 Y89.746 E.04102
G1 X116.141 Y89.746 E.11189
G1 X116.141 Y90.123 F10800
G1 F1349
G1 X137.5 Y90.123 E.65629
G1 X138.807 Y90.515 E.04193
G1 X139.683 Y91.56 E.04193
G1 X139.877 Y92.5 E.02948
G1 X139.877 Y117.5 E.76818
G1 X139.485 Y118.807 E.04193
G1 X138.44 Y119.683 E.04193
G1 X137.5 Y119.877 E.02948
G1 X112.5 Y119.877 E.76818
G1 X111.193 Y119.485 E.04193
G1 X110.317 Y118.44 E.04193
G1 X110.123 Y117.5 E.02948
G1 X110.123 Y92.5 E.76818
G1 X110.515 Y91.193 E.04193
G1 X111.56 Y90.317 E.04193
G1 X112.5 Y90.123 E.02948
G1 X116.081 Y90.123 E.11005
; printing object cube.stl id:0 copy 0
;WIPE_START
G1 F8640
G1 X119.373 Y90.123 E-.76
;WIPE_END
G1 E-.04 F2100
G1 Z.8 F720
G1 X112.725 Y92.725 F10800
G1 Z.4 F720
G1 E.8 F2100
M204 S800
;TYPE:External perimeter
;WIDTH:0.45
G1 F1349
G1 X137.275 Y92.725 E.81437
G1 X137.275 Y117.275 E.81437
M73 Q4 S14
G1 X112.725 Y117.275 E.81437
M73 P4 R14
G1 X112.725 Y92.785 E.81238
M204 S1000
; stop printing object cube.stl id:0 copy 0
M106 S170.85
;LAYER_CHANGE
;Z:0.6
;HEIGHT:0.2
;BEFORE_LAYER_CHANGE
G92 E0.0
;0.6


;WIPE_START
G1 F8640
G1 X116.016 Y92.777 E-.76
;WIPE_END
G1 E-.04 F2100
G1 Z.8 F720
;AFTER_LAYER_CHANGE
;0.6
G1 X116.016 Y89.746 F10800
G1 Z.6 F720
G1 E.8 F2100
;TYPE:Skirt/Brim
;WIDTH:0.42
G1 F1349
G1 X137.5 Y89.746 E.66013
G1 X138.917 Y90.139 E.04519
G1 X139.931 Y91.205 E.04519
G1 X140.254 Y92.5 E.04102
G1 X140.254 Y117.5 E.76818
G1 X139.861 Y118.917 E.04519
G1 X138.795 Y119.931 E.04519
G1 X137.5 Y120.254 E.04102
G1 X112.5 Y120.254 E.76818
G1 X111.083 Y119.861 E.04519
G1 X110.069 Y118.795 E.04519
G1 X109.746 Y117.5 E.04102
G1 X109.746 Y92.5 E.76818
G1 X110.139 Y91.083 E.04519
G1 X111.205 Y90.069 E.04519
G1 X112.5 Y89.746 E.04102
G1 X115.956 Y89.746 E.10621
G1 X115.956 Y90.123 F10800
M73 Q5 S14
G1 F1349
G1 X137.5 Y90.123 E.66197
G1 X138.807 Y90.515 E.04193
M73 P5 R14
G1 X139.683 Y91.56 E.04193
G1 X139.877 Y92.5 E.02948
G1 X139.877 Y117.5 E.76818
G1 X139.485 Y118.807 E.04193
G1 X138.44 Y119.683 E.04193
G1 X137.5 Y119.877 E.02948
G1 X112.5 Y119.877 E.76818
G1 X111.193 Y119.485 E.04193
G1 X110.317 Y118.44 E.04193
G1 X110.123 Y117.5 E.02948
G1 X110.123 Y92.5 E.76818
G1 X110.515 Y91.193 E.04193
G1 X111.56 Y90.317 E.04193
G1 X112.5 Y90.123 E.02948
G1 X115.896 Y90.123 E.10436
; printing object cube.stl id:0 copy 0
;WIPE_START
G1 F8640
G1 X119.188 Y90.123 E-.76
;WIPE_END
G1 E-.04 F2100
G1 Z1 F720
G1 X112.725 Y92.725 F10800
G1 Z.6 F720
G1 E.8 F2100
M204 S800
;TYPE:External perimeter
;WIDTH:0.45
G1 F1349
G1 X137.275 Y92.725 E.81437
G1 X137.275 Y117.275 E.81437
G1 X112.725 Y117.275 E.81437
G1 X112.725 Y92.785 E.81238
M204 S1000
; stop printing object cube.stl id:0 copy 0
M106 S255
;LAYER_CHANGE
;Z:0.8
;HEIGHT:0.2
;BEFORE_LAYER_CHANGE
G92 E0.0
;0.8


;WIPE_START
G1 F8640
M73 P6 R14
M73 Q6 S14
G1 X116.016 Y92.777 E-.76
;WIPE_END
G1 E-.04 F2100
G1 Z1 F720
;AFTER_LAYER_CHANGE
;0.8
; printing object cube.stl id:0 copy 0
G1 X112.725 Y92.725 F10800
G1 Z.8 F720
G1 E.8 F2100
M204 S800
G1 F900
G1 X137.275 Y92.725 E.81437
G1 X137.275 Y117.275 E.81437
G1 X112.725 Y117.275 E.81437
G1 X112.725 Y92.785 E.81238
M204 S1000
; stop printing object cube.stl id:0 copy 0
;LAYER_CHANGE
;Z:1
;HEIGHT:0.2
;BEFORE_LAYER_CHANGE
G92 E0.0
;1


;WIPE_START
G1 F8640
G1 X116.016 Y92.777 E-.76
;WIPE_END
G1 E-.04 F2100
G1 Z1.2 F720
;AFTER_LAYER_CHANGE
;1
; printing object cube.stl id:0 copy 0
G1 X112.725 Y92.725 F10800
G1 Z1 F720
G1 E.8 F2100
M204 S800
G1 F900
G1 X137.275 Y92.725 E.81437
G1 X137.275 Y117.275 E.81437
M73 P7 R14
M73 Q7 S14
G1 X112.725 Y117.275 E.81437
G1 X112.725 Y92.785 E.81238
M204 S1000
; stop printing object cube.stl id:0 copy 0
;LAYER_CHANGE
;Z:1.2
;HEIGHT:0.2
;BEFORE_LAYER_CHANGE
G92 E0.0
;1.2


;WIPE_START
G1 F8640
M73 P7 R13
G1 X116.016 Y92.777 E-.76
;WIPE_END
G1 E-.04 F2100
G1 Z1.4 F720
;AFTER_LAYER_CHANGE
;1.2
; printing object cube.stl id:0 copy 0
G1 X112.725 Y92.725 F10800
G1 Z1.2 F720
G1 E.8 F2100
M204 S800
G1 F900
G1 X137.275 Y92.725 E.81437
G1 X137.275 Y117.275 E.81437
M73 Q7 S13
G1 X112.725 Y117.275 E.81437
M73 P8 R13
M73 Q8 S13
G1 X112.725 Y92.785 E.81238
M204 S1000
; stop printing object cube.stl id:0 copy 0
;LAYER_CHANGE
;Z:1.4
;HEIGHT:0.2
;BEFORE_LAYER_CHANGE
G92 E0.0
;1.4


;WIPE_START
G1 F8640
G1 X116.016 Y92.777 E-.76
;WIPE_END
G1 E-.04 F2100
G1 Z1.6 F720
;AFTER_LAYER_CHANGE
;1.4
; printing object cube.stl id:0 copy 0
G1 X112.725 Y92.725 F10800
G1 Z1.4 F720
G1 E.8 F2100
M204 S800
G1 F900
G1 X137.275 Y92.725 E.81437
G1 X137.275 Y117.275 E.81437
G1 X112.725 Y117.275 E.81437
G1 X112.725 Y92.785 E.81238
M204 S1000
; stop printing object cube.stl id:0 copy 0
;LAYER_CHANGE
;Z:1.6
;HEIGHT:0.2
;BEFORE_LAYER_CHANGE
G92 E0.0
;1.6


;WIPE_START
G1 F8640
M73 P9 R13
M73 Q9 S13
G1 X116.016 Y92.777 E-.76
;WIPE_END
G1 E-.04 F2100
G1 Z1.8 F720
;AFTER_LAYER_CHANGE
;1.6
; printing object cube.stl id:0 copy 0
G1 X112.725 Y92.725 F10800
G1 Z1.6 F720
G1 E.8 F2100
M204 S800
G1 F900
G1 X137.275 Y92.725 E.81437
G1 X137.275 Y117.275 E.81437
G1 X112.725 Y117.275 E.81437
G1 X112.725 Y92.785 E.81238
M204 S1000
; stop printing object cube.stl id:0 copy 0
;LAYER_CHANGE
;Z:1.8
;HEIGHT:0.2
;BEFORE_LAYER_CHANGE
G92 E0.0
;1.8


;WIPE_START
G1 F8640
G1 X116.016 Y92.777 E-.76
;WIPE_END
G1 E-.04 F2100
G1 Z2 F720
;AFTER_LAYER_CHANGE
;1.8
; printing object cube.stl id:0 copy 0
G1 X112.725 Y92.725 F10800
G1 Z1.8 F720
G1 E.8 F2100
M204 S800
G1 F900
G1 X137.275 Y92.725 E.81437
G1 X137.275 Y117.275 E.81437
M73 P10 R13
M73 Q10 S13
G1 X112.725 Y117.275 E.81437
G1 X112.725 Y92.785 E.81238
M204 S1000
; stop printing object cube.stl id:0 copy 0
;LAYER_CHANGE
;Z:2
;HEIGHT:0.2
;BEFORE_LAYER_CHANGE
G92 E0.0
;2


;WIPE_START
G1 F8640
G1 X116.016 Y92.777 E-.76
;WIPE_END
G1 E-.04 F2100
G1 Z2.2 F720
;AFTER_LAYER_CHANGE
;2
; printing object cube.stl id:0 copy 0
G1 X112.725 Y92.725 F10800
G1 Z2 F720
G1 E.8 F2100
M204 S800
G1 F900
G1 X137.275 Y92.725 E.81437
G1 X137.275 Y117.275 E.81437
G1 X112.725 Y117.275 E.81437
M73 P11 R13
M73 Q11 S13
G1 X112.725 Y92.785 E.81238
M204 S1000
; stop printing object cube.stl id:0 copy 0
;LAYER_CHANGE
;Z:2.2
;HEIGHT:0.2
;BEFORE_LAYER_CHANGE
G92 E0.0
;2.2


;WIPE_START
G1 F8640
G1 X116.016 Y92.777 E-.76
;WIPE_END
G1 E-.04 F2100
G1 Z2.4 F720
;AFTER_LAYER_CHANGE
;2.2
; printing object cube.stl id:0 copy 0
G1 X112.725 Y92.725 F10800
G1 Z2.2 F720
G1 E.8 F2100
M204 S800
G1 F900
G1 X137.275 Y92.725 E.81437
G1 X137.275 Y117.275 E.81437
G1 X112.725 Y117.275 E.81437
G1 X112.725 Y92.785 E.81238
M204 S1000
; stop printing object cube.stl id:0 copy 0
;LAYER_CHANGE
;Z:2.4
;HEIGHT:0.2
;BEFORE_LAYER_CHANGE
G92 E0.0
;2.4


;WIPE_START
M73 P12 R13
M73 Q12 S13
G1 F8640
G1 X116.016 Y92.777 E-.76
;WIPE_END
G1 E-.04 F2100
G1 Z2.6 F720
;AFTER_LAYER_CHANGE
;2.4
; printing object cube.stl id:0 copy 0
G1 X112.725 Y92.725 F10800
G1 Z2.4 F720
G1 E.8 F2100
M204 S800
G1 F900
G1 X137.275 Y92.725 E.81437
G1 X137.275 Y117.275 E.81437
G1 X112.725 Y117.275 E.81437
G1 X112.725 Y92.785 E.81238
M204 S1000
; stop printing object cube.stl id:0 copy 0
;LAYER_CHANGE
;Z:2.6
;HEIGHT:0.2
;BEFORE_LAYER_CHANGE
G92 E0.0
;2.6


;WIPE_START
G1 F8640
G1 X116.016 Y92.777 E-.76
;WIPE_END
G1 E-.04 F2100
G1 Z2.8 F720
;AFTER_LAYER_CHANGE
;2.6
; printing object cube.stl id:0 copy 0
G1 X112.725 Y92.725 F10800
M73 Q13 S13
G1 Z2.6 F720
G1 E.8 F2100
M204 S800
G1 F900
G1 X137.275 Y92.725 E.81437
G1 X137.275 Y117.275 E.81437
M73 P13 R13
G1 X112.725 Y117.275 E.81437
G1 X112.725 Y92.785 E.81238
M204 S1000
; stop printing object cube.stl id:0 copy 0
;LAYER_CHANGE
;Z:2.8
;HEIGHT:0.2
;BEFORE_LAYER_CHANGE
G92 E0.0
;2.8


;WIPE_START
G1 F8640
G1 X116.016 Y92.777 E-.76
;WIPE_END
G1 E-.04 F2100
G1 Z3 F720
;AFTER_LAYER_CHANGE
;2.8
; printing object cube.stl id:0 copy 0
G1 X112.725 Y92.725 F10800
G1 Z2.8 F720
G1 E.8 F2100
M204 S800
G1 F900
G1 X137.275 Y92.725 E.81437
G1 X137.275 Y117.275 E.81437
G1 X112.725 Y117.275 E.81437
M73 P14 R13
M73 Q14 S13
G1 X112.725 Y92.785 E.81238
M204 S1000
; stop printing object cube.stl id:0 copy 0
;LAYER_CHANGE
;Z:3
;HEIGHT:0.2
;BEFORE_LAYER_CHANGE
G92 E0.0
;3


;WIPE_START
M73 P14 R12
M73 Q14 S12
G1 F8640
G1 X116.016 Y92.777 E-.76
;WIPE_END
G1 E-.04 F2100
G1 Z3.2 F720
;AFTER_LAYER_CHANGE
;3
; printing object cube.stl id:0 copy 0
G1 X112.725 Y92.725 F10800
G1 Z3 F720
G1 E.8 F2100
M204 S800
G1 F900
G1 X137.275 Y92.725 E.81437
G1 X137.275 Y117.275 E.81437
G1 X112.725 Y117.275 E.81437
G1 X112.725 Y92.785 E.81238
M204 S1000
; stop printing object cube.stl id:0 copy 0
;LAYER_CHANGE
;Z:3.2
;HEIGHT:0.2
;BEFORE_LAYER_CHANGE
G92 E0.0
;3.2


;WIPE_START
M73 P15 R12
M73 Q15 S12
G1 F8640
G1 X116.016 Y92.777 E-.76
;WIPE_END
G1 E-.04 F2100
G1 Z3.4 F720
;AFTER_LAYER_CHANGE
;3.2
; printing object cube.stl id:0 copy 0
G1 X112.725 Y92.725 F10800
G1 Z3.2 F720
G1 E.8 F2100
M204 S800
G1 F900
G1 X137.275 Y92.725 E.81437
G1 X137.275 Y117.275 E.81437
G1 X112.725 Y117.275 E.81437
G1 X112.725 Y92.785 E.81238
M204 S1000
; stop printing object cube.stl id:0 copy 0
;LAYER_CHANGE
;Z:3.4
;HEIGHT:0.2
;BEFORE_LAYER_CHANGE
G92 E0.0
;3.4


;WIPE_START
G1 F8640
M73 P16 R12
M73 Q16 S12
G1 X116.016 Y92.777 E-.76
;WIPE_END
G1 E-.04 F2100
G1 Z3.6 F720
;AFTER_LAYER_CHANGE
;3.4
; printing object cube.stl id:0 copy 0
G1 X112.725 Y92.725 F10800
G1 Z3.4 F720
G1 E.8 F2100
M204 S800
G1 F900
G1 X137.275 Y92.725 E.81437
G1 X137.275 Y117.275 E.81437
G1 X112.725 Y117.275 E.81437
G1 X112.725 Y92.785 E.81238
M204 S1000
; stop printing object cube.stl id:0 copy 0
;LAYER_CHANGE
;Z:3.6
;HEIGHT:0.2
;BEFORE_LAYER_CHANGE
G92 E0.0
;3.6


;WIPE_START
G1 F8640
G1 X116.016 Y92.777 E-.76
;WIPE_END
G1 E-.04 F2100
G1 Z3.8 F720
;AFTER_LAYER_CHANGE
;3.6
; printing object cube.stl id:0 copy 0
G1 X112.725 Y92.725 F10800
G1 Z3.6 F720
G1 E.8 F2100
M204 S800
G1 F900
G1 X137.275 Y92.725 E.81437
G1 X137.275 Y117.275 E.81437
M73 Q17 S12
G1 X112.725 Y117.275 E.81437
M73 P17 R12
G1 X112.725 Y92.785 E.81238
M204 S1000
; stop printing object cube.stl id:0 copy 0
;LAYER_CHANGE
;Z:3.8
;HEIGHT:0.2
;BEFORE_LAYER_CHANGE
G92 E0.0
;3.8


;WIPE_START
G1 F8640
G1 X116.016 Y92.777 E-.76
;WIPE_END
G1 E-.04 F2100
G1 Z4 F720
;AFTER_LAYER_CHANGE
;3.8
; printing object cube.stl id:0 copy 0
G1 X112.725 Y92.725 F10800
G1 Z3.8 F720
G1 E.8 F2100
M204 S800
G1 F900
G1 X137.275 Y92.725 E.81437
G1 X137.275 Y117.275 E.81437
G1 X112.725 Y117.275 E.81437
G1 X112.725 Y92.785 E.81238
M204 S1000
; stop printing object cube.stl id:0 copy 0
;LAYER_CHANGE
;Z:4
;HEIGHT:0.2
;BEFORE_LAYER_CHANGE
G92 E0.0
;4


;WIPE_START
M73 P18 R12
M73 Q18 S12
G1 F8640
G1 X116.016 Y92.777 E-.76
;WIPE_END
G1 E-.04 F2100
G1 Z4.2 F720
;AFTER_LAYER_CHANGE
;4
; printing object cube.stl id:0 copy 0
G1 X112.725 Y92.725 F10800
G1 Z4 F720
G1 E.8 F2100
M204 S800
G1 F900
G1 X137.275 Y92.725 E.81437
G1 X137.275 Y117.275 E.81437
G1 X112.725 Y117.275 E.81437
G1 X112.725 Y92.785 E.81238
M204 S1000
; stop printing object cube.stl id:0 copy 0
;LAYER_CHANGE
;Z:4.2
;HEIGHT:0.2
;BEFORE_LAYER_CHANGE
G92 E0.0
;4.2


;WIPE_START
G1 F8640
M73 P19 R12
M73 Q19 S12
G1 X116.016 Y92.777 E-.76
;WIPE_END
G1 E-.04 F2100
G1 Z4.4 F720
;AFTER_LAYER_CHANGE
;4.2
; printing object cube.stl id:0 copy 0
G1 X112.725 Y92.725 F10800
G1 Z4.2 F720
G1 E.8 F2100
M204 S800
G1 F900
G1 X137.275 Y92.725 E.81437
G1 X137.275 Y117.275 E.81437
G1 X112.725 Y117.275 E.81437
G1 X112.725 Y92.785 E.81238
M204 S1000
; stop printing object cube.stl id:0 copy 0
;LAYER_CHANGE
;Z:4.4
;HEIGHT:0.2
;BEFORE_LAYER_CHANGE
G92 E0.0
;4.4


;WIPE_START
G1 F8640
G1 X116.016 Y92.777 E-.76
;WIPE_END
G1 E-.04 F2100
G1 Z4.6 F720
;AFTER_LAYER_CHANGE
;4.4
; printing object cube.stl id:0 copy 0
G1 X112.725 Y92.725 F10800
G1 Z4.4 F720
G1 E.8 F2100
M204 S800
G1 F900
G1 X137.275 Y92.725 E.81437
G1 X137.275 Y117.275 E.81437
M73 P20 R12
M73 Q20 S12
G1 X112.725 Y117.275 E.81437
G1 X112.725 Y92.785 E.81238
M204 S1000
; stop printing object cube.stl id:0 copy 0
;LAYER_CHANGE
;Z:4.6
;HEIGHT:0.2
;BEFORE_LAYER_CHANGE
G92 E0.0
;4.6


;WIPE_START
G1 F8640
G1 X116.016 Y92.777 E-.76
;WIPE_END
G1 E-.04 F2100
G1 Z4.8 F720
;AFTER_LAYER_CHANGE
;4.6
; printing object cube.stl id:0 copy 0
G1 X112.725 Y92.725 F10800
G1 Z4.6 F720
G1 E.8 F2100
M204 S800
G1 F900
G1 X137.275 Y92.725 E.81437
